packages/asc-assets/static/icons/Clock.svg

<?xml version="1.0" encoding="UTF-8"?>
<svg width="32px" height="32px" viewBox="0 0 32 32" version="1.1" xmlns="http://www.w3.org/2000/svg" xmlns:xlink="http://www.w3.org/1999/xlink">
    <title>Shape</title>
    <g id="Symbols" stroke="none" stroke-width="1" fill="none" fill-rule="evenodd">
        <g id="Icon/32/Clock-" fill="#000000">
            <path d="M16,0 C7.163444,0 0,7.163444 0,16 C0,24.836556 7.163444,32 16,32 C24.836556,32 32,24.836556 32,16 C32,11.7565362 30.3142906,7.68687356 27.3137085,4.6862915 C24.3131264,1.68570945 20.2434638,0 16,0 Z M16.9,28 L16.9,26 L14.9,26 L14.9,27.9 C9.10661017,27.4228377 4.52374784,22.7975415 4.1,17 L6,17 L6,15 L4.1,15 C4.53020941,9.16757656 9.16757656,4.53020941 15,4.1 L15,6 L17,6 L17,4.1 C22.8324234,4.53020941 27.4697906,9.16757656 27.9,15 L26,15 L26,17 L27.9,17 C27.4692717,22.8875014 22.7875014,27.5692717 16.9,28 Z M17,15 L21,15 L21,17 L15,17 L15,9 L17,9 L17,15 Z" id="Shape"></path>
        </g>
    </g>
</svg>

<svg viewBox="0 0 32 32" xmlns="http://www.w3.org/2000/svg"><path d="M16 0C7.163 0 0 7.163 0 16s7.163 16 16 16 16-7.163 16-16A16 16 0 0016 0zm.9 28v-2h-2v1.9A11.8 11.8 0 014.1 17H6v-2H4.1A11.8 11.8 0 0115 4.1V6h2V4.1A11.8 11.8 0 0127.9 15H26v2h1.9a11.9 11.9 0 01-11 11zm.1-13h4v2h-6V9h2v6z" fill="#000" fill-rule="evenodd"/></svg>
